X:1
T:When I think on your truth
T:When I think on your truth
T:a favorite song 
T:by Mr. Delamain
T:But Ah! when I think on each delicate grace, The beams, and the smiles of that Heavenly Face, I tremble again, I again apprehend; Some fortunate rival in every Friend. 
T:Delamain, Henry. When I think on your truth a favorite song. [Monographic. Sold by I and M Paff 1799] Notated Music. https://www.loc.gov/item/2014568263/
T:Delamain, Henry. When I think on your truth a favorite song. [Monographic. Sold by I and M Paff 1799] Notated Music. https://www.loc.gov/item/2014568263/
C:by Mr. Delamain
Z:Delamain, Henry. When I think on your truth a favorite song. [Monographic. Sold by I and M Paff 1799] Notated Music. https://www.loc.gov/item/2014568263/
%%score ( 1 2 ) 3 { 4 | 5 }
L:1/8
Q:1/4=48
M:2/4
K:Eb
V:1 treble nm="Flauto"
V:2 treble 
V:3 treble nm="Contralto"
V:4 treble nm="Piano"
V:5 bass 
V:1
"^Andante" z | z4 | z4 | z4 | z2 z |: z | z4 | z4 | z4 | z4 | z4 | z4 | z4 | z4 | z4 | z4 | z4 | %17
 z4 | z4 | z4 | z4 | z4 | z4 | z2 z :|[K:C]"^Flute or Guitar" [Ec]/[Ec]/ | %25
 [Cc][Cc]/[Cc]/ [Gg][Gg]/[Gg]/ | [^fc'][fc']/[fd']/ c'/b/ z/ [Bb]/ | ac'/a/ ge/g/ | %28
 [Eg]/[Df]/[Ce]/[Fd]/ [CEGc] :| f/ | ^ff/f/ [Ag]/c'/a/[Ag]/ | [Bg][Bg]/[Bg]/ [Bg][gd'] | %32
"_Sold by I and M Paff" [gd']b/d'/ d'/c'/a/b/ | [Gc'][^fa]/c'/ [Gb] z/ [eg]/ | %34
 [eg][ce]/[df]/ [eg][ce]/[df]/ | ga/b/ c'b/a/ | ge/c/ [Bd]f/d/ | [GB]d/B/ [CEGc] z || %38
V:2
 x | x4 | x4 | x4 | x3 |: x | x4 | x4 | x4 | x4 | x4 | x4 | x4 | x4 | x4 | x4 | x4 | x4 | x4 | x4 | %20
 x4 | x4 | x4 | x3 :|[K:C] x | x4 | x4 | x4 | x3 :| x/ | x4 | x4 | x4 | x4 | x4 | E2 C2 | E2 x2 | %37
 x4 || %38
V:3
 z | z4 | z4 | z4 | z3 |: G,/ G,/ | G, G,/ G,/ D D/ D/ | =A A/ A/ (A/ B/) z/ B/ | A c/ A/ G E/ G/ | %9
 (G/ F/) B,/ G,/ G,/ G, G,/ | G, G,/ G,/ D D/ D/ | =A A/ A/ (A/ B/) z/ B/ | A c/ A/ G E/ G/ | %13
 (G/ F/) B,/ G,/ G,/ z G,/ | F F/ F/ (F/ e/ c/) F/ | B D/ D/ D z/ d/ | d B/ d/ d/ c/ =A/ B/ | %17
 c =A/ c/ B z/ G/ | G E/ F/ G (E/ F/) | G A/ [Fd]/ [Ge] B/ A/ | B G/ E/ F A/ F/ | D F/ D/ G, g | %22
 z4 | z3 :|[K:C] z | z4 | z4 | z4 | z3 :| z/ | z4 | z4 | z4 | z4 | z4 | z4 | z4 | z4 || %38
V:4
 [G,E]/[G,E]/ | [G,E][G,E]/[G,E]/ [DG][DG]/[DG]/ | [=Ae][Ae]/[Ae]/ [Ae]/[Bd]/ z/ [Bd]/ | %3
w: |||
 [Ac][ce]/[Ac]/ [GB][EG]/[GB]/ | [GB]/[FA]/[EG]/[DF]/ [G,E] |: [G,E]/ [G,E]/ | %6
w: ||When I|
 [G,E] [G,E]/ [G,E]/ [DB] [DB]/ [DB]/ | [=Ae] [Ae]/ [Ae]/ ([Ae]/[Bd]/) z/ [Bd]/ | %8
w: think on your truth I can|doubt you no mo\- re I|
 [Ac] [ce]/ [Ac]/ [GB] [EG]/ [GB]/ | ([GB]/[FA]/) [B,G]/ [G,E]/ [G,E]/ [G,E] [G,E]/ | %10
w: blame all the fear I gave|way * to be\- fore when I|
 [G,E] [G,E]/ [G,E]/ [DB] [DB]/ [DB]/ | [=Ae] [Ae]/ [Ae]/ ([Ae]/[Bd]/) z/ [Bd]/ | %12
w: think on your truth I can|doubt you no mo\- re I|
 [Ac] [ce]/ [Ac]/ [GB] [EG]/ [GB]/ | ([GB]/[FA]/) [B,G]/ [G,E]/ [G,E]/ z [G,E]/ | %14
w: blame all the fear I gave|way * to be\- fore I|
 [F=A] [FA]/ [FA]/ ([FA]/e/c/) [FA]/ | B [DF]/ [DF]/ [DF] z/ [df]/ | %16
w: say to my hearth, * * beat|rest, and be\- lieve, whom|
 [df] [Bd]/ [df]/ [df]/[ce]/ [=Ac]/ [Bd]/ | [ce] [=Ac]/ [ce]/ [Bd] z/ [GB]/ | %18
w: once she has cho\- * sen she|ne\- ver will leave I|
 [GB] [EG]/ [FA]/ [GB] ([EG]/ [FA]/) | [GB] [Ac]/ [Fd]/ [Ge] [Bd]/[Ac]/ | B G/ E/ F A/ F/ | %21
w: say to my heart, be\- at,|rest, and be\- lieve whom *|once she has cho\- sen she|
 D F/D/ [G,E] [gb] | bg/e/ fa/f/ | df/d/ [Ge] :|[K:C] z | z4 | z4 | z4 | z3 :| z/ | z4 | z4 | z4 | %33
w: ne\- ver will lea\- ve.||||||||||||
 z4 | z4 | z4 | z4 | z4 || %38
w: |||||
V:5
 z | [E,,E,]/[E,,E,]/[E,,E,]/[E,,E,]/ !//![D,,D,]2 | !//![C,,C,]2 !//![B,,,B,,]2 | %3
 !//![A,,A,]2 !//![G,,G,]2 | [A,,A,]/[A,,A,]/[B,,B,]/[B,,B,]/ [E,,E,] |: z | %6
 [E,,E,]/[E,,E,]/[E,,E,]/[E,,E,]/ [D,,D,]/[D,,D,]/[D,,D,]/[D,,D,]/ | !//![C,,C,]2 !//![B,,,B,,]2 | %8
 !//![A,,A,]2 !//![G,,G,]2 | [A,,A,]/[A,,A,]/[B,,B,]/[B,,B,]/ !//![E,,E,]2 | %10
 !//![E,,E,]2 !//![D,,D,]2 | [C,,E,]/[C,,E,]/[=A,,,=A,,]/[A,,,A,,]/ !//![B,,,B,,]2 | %12
 !//![A,,A,]2 !//![G,,G,]2 | [A,,A,]/[A,,A,]/[B,,B,]/[B,,B,]/ !//![E,,E,]2 | %14
 !//![F,,F,]2 !//![F,,F,]2 | [B,,B,]2 [B,,B,] z | !//![F,,F,]2 !//![F,,F,]2 | %17
 !//![F,,F,]2 [B,,,B,,] z | !//![E,,E,]2 !//![E,,E,]2 | %19
 [E,,E,]/[E,,E,]/[A,,A,]/[A,,A,]/ [G,,G,]/[G,,G,]/[A,,A,]/[A,,A,]/ | !//![G,,G,]2 !//![A,,A,]2 | %21
 !//![B,,B,]2 [E,,E,] z | !//![G,,G,]2 !//![A,,A,]2 | !//![B,,B,]2 [E,,E,] :|[K:C] z | z4 | z4 | %27
 z4 | z3 :| z/ | z4 | z4 | z4 | z4 | z4 | z4 | z4 | z4 || %38

